icons/linear-ele-time-watch-2.svg

<svg xmlns="http://www.w3.org/2000/svg" width="32px" height="32px" viewBox="0 0 32 32" version="1.1">
    <title>linear-ele-time-watch-2</title>
    <g id="linear-ele-time-watch-2" stroke-width="1" fill-rule="evenodd">
        <path d="M20,2 C20.5522847,2 21,2.44771525 21,3 L21.0009861,7.33839245 C23.9894491,9.06757986 26,12.2989953 26,16 C26,19.7010047 23.9894491,22.9324201 21.0009861,24.6616075 L21,29 C21,29.5522847 20.5522847,30 20,30 L12,30 C11.4477153,30 11,29.5522847 11,29 L11.0000129,24.6621855 C8.01099892,22.9331402 6,19.7014171 6,16 C6,12.2985829 8.01099892,9.06685978 11.0000129,7.33781451 L11,3 C11,2.44771525 11.4477153,2 12,2 L20,2 Z M16,26 C14.9548381,26 13.9471258,25.8396596 13.0001192,25.5422352 L13,28 L19,28 L19.0008825,25.5419205 C18.0535849,25.8395465 17.0455304,26 16,26 Z M16,8 C11.581722,8 8,11.581722 8,16 C8,20.418278 11.581722,24 16,24 C20.418278,24 24,20.418278 24,16 C24,11.581722 20.418278,8 16,8 Z M15,11 C15.5522847,11 16,11.4477153 16,12 L16,16 L19,16 C19.5128358,16 19.9355072,16.3860402 19.9932723,16.8833789 L20,17 C20,17.5522847 19.5522847,18 19,18 L15,18 C14.4477153,18 14,17.5522847 14,17 L14,12 C14,11.4477153 14.4477153,11 15,11 Z M19,4 L13,4 L13.0001192,6.45776484 C13.9471258,6.16034037 14.9548381,6 16,6 C17.0455304,6 18.0535849,6.16045347 19.0008825,6.45807951 L19,4 Z" id="&#24418;&#29366;" fill-rule="nonzero" />
    </g>
</svg>

<svg xmlns="http://www.w3.org/2000/svg" viewBox="0 0 32 32"><path fill="currentColor" d="M20 2a1 1 0 0 1 1 1l.001 4.338A9.996 9.996 0 0 1 26 16a9.996 9.996 0 0 1-4.999 8.662L21 29a1 1 0 0 1-1 1h-8a1 1 0 0 1-1-1v-4.338A9.996 9.996 0 0 1 6 16a9.996 9.996 0 0 1 5-8.662V3a1 1 0 0 1 1-1zm-4 24a9.996 9.996 0 0 1-3-.458V28h6v-2.458A9.996 9.996 0 0 1 16 26m0-18a8 8 0 1 0 0 16 8 8 0 0 0 0-16m-1 3a1 1 0 0 1 1 1v4h3a1 1 0 0 1 .993.883L20 17a1 1 0 0 1-1 1h-4a1 1 0 0 1-1-1v-5a1 1 0 0 1 1-1m4-7h-6v2.458A9.996 9.996 0 0 1 16 6c1.046 0 2.054.16 3 .458z"/></svg>
